Papirus/24x24/animations/nm-vpn-connecting05.svg

<?xml version="1.0" encoding="UTF-8" standalone="no"?>
<svg xmlns="http://www.w3.org/2000/svg" version="1.1" width="24" height="24">
 <defs>
  <linearGradient x1="7" y1="12" gradientTransform="matrix(0.97515,0.22155,0.22155,-0.97515,-2.3598,21.043)" x2="19" gradientUnits="userSpaceOnUse" y2="5" id="linearGradient3605">
   <stop offset="0" stop-opacity=".5" stop-color="#d3dae3"/>
   <stop offset="1" stop-opacity="0" stop-color="#d3dae3"/>
  </linearGradient>
  <linearGradient x1="7" y1="12" gradientTransform="matrix(-0.97515,-0.22155,-0.22155,0.97515,26.361,2.9568)" x2="17" gradientUnits="userSpaceOnUse" y2="12" id="linearGradient3611">
   <stop offset="0" stop-color="#d3dae3"/>
   <stop offset="1" stop-color="#d3dae3" stop-opacity=".5"/>
  </linearGradient>
 </defs>
 <path d="M 12.144531 5 C 8.8892312 4.9297 5.9233281 7.1508187 5.1738281 10.449219 L 7.125 10.892578 C 7.7368 8.1993781 10.417375 6.5133 13.109375 7.125 C 15.430472 7.652395 16.980507 9.7175038 16.978516 12.001953 C 16.985855 12.001899 16.992648 12 17 12 C 17.750032 12 18.424226 12.29356 18.947266 12.757812 C 19.332069 9.2686718 17.055833 5.9701728 13.550781 5.1738281 C 13.079781 5.0668281 12.609531 5.01 12.144531 5 z" style="fill:url(#linearGradient3611)"/>
 <path d="M 5.1757812 10.449219 C 4.3192813 14.219219 6.6795187 17.970172 10.449219 18.826172 C 11.313278 19.022436 12.172874 19.034163 13 18.912109 L 13 16.875 C 12.323684 17.019791 11.611471 17.038312 10.892578 16.875 C 8.1993781 16.263 6.5132 13.584578 7.125 10.892578 L 5.1757812 10.449219 z" style="fill:url(#linearGradient3605)"/>
 <path d="m17 13c-1.108 0-2 .91085-2 2.0312v.96875h-1v4h6v-4h-1v-.96875c0-1.12-.892-2.031-2-2.031zm0 1c.554 0 1 .4424 1 1v1h-2v-1c0-.5576.446-1 1-1z" fill="#d3dae3"/>
</svg>

<?xml version="1.0" encoding="UTF-8" standalone="no"?>
<svg width="24" xmlns="http://www.w3.org/2000/svg" version="1.1" height="24">
 <defs>
  <linearGradient id="linearGradient3605" x1="7" gradientUnits="userSpaceOnUse" x2="19" gradientTransform="matrix(.97515 .22155 .22155 -.97515 -2.3598 21.043)" y1="12" y2="5">
   <stop stop-opacity=".5" stop-color="#d3dae3" offset="0"/>
   <stop stop-opacity="0" stop-color="#d3dae3" offset="1"/>
  </linearGradient>
  <linearGradient id="linearGradient3611" x1="7" gradientUnits="userSpaceOnUse" x2="17" gradientTransform="matrix(-.97515 -.22155 -.22155 .97515 26.361 2.9568)" y1="12" y2="12">
   <stop stop-color="#d3dae3" offset="0"/>
   <stop stop-color="#d3dae3" stop-opacity=".5" offset="1"/>
  </linearGradient>
 </defs>
 <path style="fill:url(#linearGradient3611)" d="m12.145 5c-3.2558-0.0703-6.2217 2.1508-6.9712 5.449l1.9512 0.444c0.6118-2.6936 3.292-4.3797 5.984-3.768 2.321 0.5274 3.872 2.5925 3.87 4.877 0.007 0 0.014-0.002 0.021-0.002 0.75 0 1.424 0.294 1.947 0.758 0.385-3.4893-1.891-6.7878-5.396-7.5842-0.471-0.107-0.941-0.1638-1.406-0.1738z"/>
 <path style="fill:url(#linearGradient3605)" d="m5.1758 10.449c-0.8565 3.77 1.5037 7.521 5.2732 8.377 0.864 0.196 1.724 0.208 2.551 0.086v-2.037c-0.676 0.145-1.389 0.163-2.107 0-2.6936-0.612-4.3798-3.29-3.768-5.982l-1.9492-0.444z"/>
 <path d="m17 13c-1.108 0-2 0.91085-2 2.0312v0.96875h-1v4h6v-4h-1v-0.96875c0-1.12-0.892-2.031-2-2.031zm0 1c0.554 0 1 0.4424 1 1v1h-2v-1c0-0.5576 0.446-1 1-1z" fill="#d3dae3"/>
</svg>
